X: 33650
T: Rambles Of Spring, The
R: reel
M: 4/4
K: Gmajor
DC|:B,DGA B2 AG|EDCE D2 DC|B,DGA BGcB|A6 DC|
B,DGA B2 AG|EDCE D2 GA|BGcB A>G FA|1 G6 DC:|2 G6 Bc||
|:d2 B2 G2 Bd|e2 cB A2 Bc|dBcA BGAF|D6 Bc|
ddBA G2 Bd|eecB A2 Bc|dBcA FDBA|1 G6 Bc:|2 G6||

